X: 1
T: the Mickey Mouse Club March
M: 6/8
L: 1/8
K: G
|: "G"G2G G2G |"Em"G2G G2G |"A7"A2G F2E | "D7"D6     | "G"G2G G3  | "C"G2G G3  | "G"B2G "D7"A2F |1 "G"G3 DEF :|2 "G"G3 G2G |
|  "C"E6-     |    E3  G2G | "G"D6-     |     D3 G2F |"A7"E2E E2E |    E2E F2G |"D7"A3-     A3- |     A3 DEF |
|  "G"G2G G2G |"Em"G2G G2G |"A7"A2G F2E | "D7"D6     | "G"G2G G3  | "C"G2G G3  | "G"B2G "D7"A2F |  "G"G3 z3 |]
